demos/KANBAN/public/icons/Profit.svg

<svg width="30" height="30" viewBox="0 0 30 30" fill="none" xmlns="http://www.w3.org/2000/svg">
<rect width="30" height="30" rx="4" fill="#FFEEDB"/>
<path fill-rule="evenodd" clip-rule="evenodd" d="M3.30416 16.774C3.2429 16.5979 3.33599 16.4053 3.51205 16.3429C11.8051 13.4561 19.0658 9.20983 25.111 3.72649L23.392 3.81994C23.2068 3.82951 23.0464 3.6873 23.0362 3.50021C23.0261 3.31458 23.1689 3.15453 23.3552 3.14496L26.0204 3H26.0561C26.1442 3.0046 26.2281 3.04397 26.2879 3.10964C26.3563 3.18433 26.3876 3.2857 26.3727 3.38633L25.988 6.02773C25.9635 6.19588 25.8191 6.31638 25.6543 6.31638C25.6381 6.31638 25.6219 6.31509 25.6052 6.31233C25.4205 6.2851 25.2928 6.11457 25.3195 5.93023L25.5678 4.22396C19.4548 9.76993 12.1154 14.0636 3.73384 16.9817C3.69704 16.9951 3.6597 17.0006 3.62254 17.0006C3.48309 17.0006 3.35265 16.9138 3.30391 16.7742L3.30416 16.774ZM27.6093 27.3238V9.85891H25.0455V27.3238H27.6093ZM27.9472 9.18262H24.7079C24.5214 9.18262 24.37 9.33421 24.37 9.52002V27.6612C24.37 27.8483 24.521 27.9986 24.7079 27.9986H27.9472C28.1339 27.9986 28.2852 27.8482 28.2852 27.6612V9.52002C28.2852 9.3344 28.1338 9.18262 27.9472 9.18262ZM20.581 27.3238V13.5305H18.0172V27.3238H20.581ZM20.9189 12.8542H17.6795C17.4929 12.8542 17.3415 13.0062 17.3415 13.1918V27.6614C17.3415 27.8485 17.4929 27.9988 17.6795 27.9988H20.9187C21.1053 27.9988 21.2567 27.8483 21.2567 27.6614L21.2565 13.1918C21.2569 13.0062 21.1055 12.8542 20.9189 12.8542H20.9189ZM13.5527 27.3238V16.4985H10.9889V27.3234H13.5527V27.3238ZM13.8907 15.824H10.6514C10.4648 15.824 10.3134 15.9745 10.3134 16.1614V27.6612C10.3134 27.8483 10.4648 27.9986 10.6514 27.9986H13.8907C14.0772 27.9986 14.2286 27.8482 14.2286 27.6612V16.1614C14.2286 15.9743 14.0772 15.824 13.8907 15.824ZM6.52444 27.3238H3.96103V20.8727H6.52482V27.3238H6.52444ZM6.86239 20.1973H3.62311C3.43638 20.1973 3.28516 20.3478 3.28516 20.5349V27.6614C3.28516 27.8485 3.43619 27.9988 3.62311 27.9988H6.86239C7.04893 27.9988 7.20034 27.8483 7.20034 27.6614V20.5349C7.20034 20.3478 7.04893 20.1975 6.86239 20.1975V20.1973Z" fill="#DBA362" fill-opacity="0.8"/>
<path d="M6.96191 20.0977V20.1094C7.15554 20.1543 7.30078 20.3269 7.30078 20.5352V27.6611C7.30078 27.9036 7.10379 28.0986 6.8623 28.0986H3.62305C3.38118 28.0986 3.18555 27.9037 3.18555 27.6611V20.5352C3.18555 20.2926 3.38133 20.0977 3.62305 20.0977H6.96191ZM13.8906 15.7236C14.132 15.7236 14.328 15.9186 14.3281 16.1611V27.6611C14.3281 27.9036 14.1321 28.0986 13.8906 28.0986H10.6514C10.4099 28.0986 10.2139 27.9038 10.2139 27.6611V16.1611C10.214 15.9189 10.41 15.7236 10.6514 15.7236H13.8906ZM20.9189 12.7539C21.1605 12.7539 21.3566 12.9507 21.3564 13.1914V27.6611C21.3564 27.9035 21.1603 28.0985 20.9189 28.0986H17.6797C17.4382 28.0986 17.2412 27.9038 17.2412 27.6611V13.1914C17.2414 12.9508 17.438 12.7539 17.6797 12.7539H20.9189ZM27.9473 9.08301C28.1888 9.08304 28.3845 9.27889 28.3848 9.51953V27.6611C28.3848 27.9035 28.1889 28.0986 27.9473 28.0986H24.708C24.4661 28.0986 24.2695 27.9037 24.2695 27.6611V9.51953C24.2698 9.27865 24.4665 9.08301 24.708 9.08301H27.9473ZM25.1455 27.2236H27.5088V9.95898H25.1455V27.2236ZM18.1172 27.2236H20.4814V13.6309H18.1172V27.2236ZM11.0889 27.2236H13.4531V16.5986H11.0889V27.2236ZM4.06055 27.2236H6.4248V20.9727H4.06055V27.2236ZM26.0205 2.90039H26.0615C26.1757 2.90641 26.2847 2.95678 26.3623 3.04199H26.3613C26.4501 3.13883 26.491 3.27086 26.4717 3.40137L26.0869 6.04199C26.0552 6.26021 25.8679 6.41601 25.6543 6.41602C25.6327 6.41602 25.611 6.41478 25.5889 6.41113V6.41016C25.351 6.37408 25.1862 6.15461 25.2207 5.91602L25.4287 4.48145C19.3462 9.94761 12.0666 14.1865 3.7666 17.0762L3.76562 17.0752C3.71708 17.0926 3.66861 17.1006 3.62207 17.1006C3.44164 17.1004 3.27312 16.9875 3.20996 16.8066L3.18652 16.7402L3.19336 16.7344C3.15881 16.5279 3.27488 16.3213 3.47852 16.249L3.47949 16.248C11.6646 13.3988 18.8398 9.22262 24.832 3.84082L23.3975 3.91992C23.1577 3.9323 22.9498 3.74837 22.9365 3.50586C22.9234 3.26548 23.1079 3.05761 23.3496 3.04492L26.0146 2.90039L26.0205 2.89941V2.90039Z" stroke="#DBA362" stroke-opacity="0.8" stroke-width="0.2"/>
</svg>

<svg xmlns="http://www.w3.org/2000/svg" width="30" height="30" fill="none"><rect width="30" height="30" fill="#FFEEDB" rx="4"/><path fill="#DBA362" fill-opacity=".8" fill-rule="evenodd" d="M3.304 16.774a.34.34 0 0 1 .208-.431c8.293-2.887 15.554-7.133 21.599-12.617l-1.719.094a.338.338 0 1 1-.037-.675L26.02 3h.036a.338.338 0 0 1 .317.386l-.385 2.642a.337.337 0 0 1-.668-.098l.248-1.706c-6.113 5.546-13.453 9.84-21.834 12.758a.337.337 0 0 1-.43-.207v-.001Zm24.305 10.55V9.859h-2.564v17.465h2.564Zm.338-18.141h-3.24a.338.338 0 0 0-.337.337v18.141c0 .187.151.338.338.338h3.24c.186 0 .337-.15.337-.338V9.52a.338.338 0 0 0-.338-.337Zm-7.366 18.14V13.53h-2.564v13.794h2.564Zm.338-14.469h-3.24a.338.338 0 0 0-.337.338v14.47c0 .187.15.337.338.337h3.239c.186 0 .338-.15.338-.338v-14.47a.338.338 0 0 0-.338-.337Zm-7.366 14.47V16.498h-2.564v10.825h2.564Zm.338-11.5h-3.24a.337.337 0 0 0-.338.337v11.5c0 .187.152.338.338.338h3.24c.186 0 .338-.15.338-.338v-11.5a.337.337 0 0 0-.338-.337Zm-7.367 11.5H3.961v-6.451h2.564v6.45Zm.338-7.127H3.623a.337.337 0 0 0-.338.338v7.126c0 .188.151.338.338.338h3.24c.186 0 .337-.15.337-.338v-7.126a.337.337 0 0 0-.338-.337Z" clip-rule="evenodd"/><path stroke="#DBA362" stroke-opacity=".8" stroke-width=".2" d="M6.962 20.098v.011a.437.437 0 0 1 .339.426v7.126a.438.438 0 0 1-.439.438H3.623a.437.437 0 0 1-.437-.438v-7.126c0-.242.195-.437.437-.437h3.339Zm6.929-4.374c.241 0 .437.195.437.437v11.5a.437.437 0 0 1-.437.438h-3.24a.437.437 0 0 1-.437-.438v-11.5c0-.242.196-.437.437-.437h3.24Zm7.028-2.97c.241 0 .438.197.437.437v14.47a.437.437 0 0 1-.437.438h-3.24a.438.438 0 0 1-.438-.438v-14.47a.44.44 0 0 1 .439-.437h3.239Zm7.028-3.671c.242 0 .438.196.438.437V27.66a.437.437 0 0 1-.438.438h-3.239a.438.438 0 0 1-.438-.438V9.52c0-.241.197-.437.438-.437h3.24Zm-2.802 18.14h2.364V9.96h-2.364v17.265Zm-7.028 0h2.364V13.632h-2.364v13.593Zm-7.028 0h2.364V16.6H11.09v10.625Zm-7.028 0h2.364v-6.25H4.06v6.25ZM26.02 2.9h.04a.437.437 0 0 1 .41.501l-.384 2.641a.437.437 0 0 1-.498.37V6.41a.437.437 0 0 1-.368-.494l.208-1.435c-6.083 5.467-13.362 9.706-21.662 12.595h-.001a.437.437 0 0 1-.556-.269l-.023-.067.006-.006a.438.438 0 0 1 .286-.485v-.001c8.186-2.85 15.36-7.025 21.353-12.407l-1.434.079a.438.438 0 0 1-.048-.875l2.665-.145h.005Z"/></svg>
